X:1
T:Bunt sind schon die Wälder
T:Johann Friedrich Reichardt
T:Johann Gaudenz von Salis Seewis
T:Bunt sind schon die Wälder
T:CPDL   —   Creative Commons Attribution Non Commercial 3.0
C:Johann Friedrich Reichardt
Z:Johann Gaudenz von Salis Seewis
Z:CPDL   —   Creative Commons Attribution Non Commercial 3.0
%%score [ ( 1 2 ) ( 3 4 ) ]
L:1/8
M:6/8
K:Bb
V:1 treble nm="Sopran\nAlt"
V:2 treble 
V:3 bass nm="Tenor\nBass"
V:4 bass 
V:1
 B2 B BAB | c3 B3 | d2 d dcd | e3 d3 | c2 c cd=e | f3 z2 z | d2 c B2 A | G3 G3 | e2 d cd_B | %9
w: 1. Bunt sind schon _ die|Wäl- der,|gelb die Stop- * pel-|fel- der,|und der Herbst _ be-|ginnt.|Ro- te Blät- ter|fal- len,|grau- e Ne- * bel|
w: 2. Wie die vol- * le|Trau- be,|aus dem Re- * ben-|lau- be|pur- pur- far- * big|strahlt!|Am Ge- län- der|rei- fen|Pfir- si- che, _ mit|
w: 3. Flin- ke Trä- * ger|sprin- gen,|und die Mäd- * chen|sin- gen,|al- les ju- * belt|froh!|Bun- te Bän- der|schwe- ben,|zwi- schen ho- * hen|
w: 4. Gei- ge tönt _ und|Flö- te|bei der A- * bend-|rö- te|und im Mon- * den-|glanz;|Jun- ge Win- zer-|in- nen|win- ken und _ be-|
 A3 A3 | Bdf FGA | B3 z2 z |] %12
w: wal- len,|küh- * ler weht _ der|Wind.|
w: Strei- fen|rot _ und weiss _ be-|malt.|
w: Re- ben,|auf _ dem Hut _ von|Stroh!|
w: gin- nen|fro- * hen Ern- * te-|tanz.|
V:2
 D2 D DCD | E3 D3 | F2 F F2 F | F3 F3 | F2 A B2 B | A3 x2 x | F2 E D2 F | E3 F3 | G2 G G2 G | %9
 (F2 G) (F2 _E) | DFF F=E_E | D3 x2 x |] %12
V:3
 F,2 F, F,2 F, | A,3 B,3 | B,2 B, B,A,B, | A,3 B,3 | A,2 C C2 C | C3 z2 z | B,2 B, F,2 B, | %7
 B,3 =B,3 | C2 =B, C2 C | (C2 _E) (D2 C) | B,2 D D_DC | B,3 z2 z |] %12
V:4
 B,,2 B,, B,,2 B,, | F,3 B,,3 | B,,2 B,, B,,2 B,, | F,3 B,,3 | F,2 F, G,2 C, | F,3 x2 x | %6
 B,,2 B,, B,,2 D, | E,3 (D,2 G,) | C,2 D, E,2 =E, | F,3 F,3 | B,,2 B, F,2 F, | B,,3 x2 x |] %12

